icon/lg/kirby-icon.svg

<?xml version="1.0" encoding="UTF-8"?>
<svg viewBox="0 0 256 299" version="1.1" xmlns="http://www.w3.org/2000/svg" xmlns:xlink="http://www.w3.org/1999/xlink" preserveAspectRatio="xMidYMid" height="1em" width="1em">
  <g>
    <path d="M128,0 L256,74.6524444 L256,224.014222 L128,298.666667 L0,224.014222 L0,74.6524444 L128,0 Z M128,16.7822222 L14.2222222,83.1502222 L14.2222222,215.516444 L128,281.877333 L241.777778,215.516444 L241.777778,83.1502222 L128,16.7822222 Z M184.888889,113.777778 L184.888889,149.333333 L149.333333,167.751111 L149.333333,170.666667 L184.888889,170.666667 L184.888889,199.111111 L71.1111111,199.111111 L71.1111111,170.666667 L106.666667,170.666667 L106.666667,167.559111 L71.1111111,149.333333 L71.1111111,113.777778 L128,144.334222 L184.888889,113.777778 Z" fill="#000000"/>
  </g>
</svg>

<svg width="256" height="299" xmlns="http://www.w3.org/2000/svg" preserveAspectRatio="xMidYMid"><path d="m128 0 128 74.652v149.362l-128 74.653L0 224.014V74.652L128 0Zm0 16.782L14.222 83.15v132.366L128 281.877l113.778-66.36V83.15L128 16.782Zm56.889 96.996v35.555l-35.556 18.418v2.916h35.556v28.444H71.11v-28.444h35.556v-3.108L71.11 149.333v-35.555L128 144.334l56.889-30.556Z"/></svg>
